images/search.svg

<svg width="21" height="21" viewBox="0 0 21 21" fill="none" xmlns="http://www.w3.org/2000/svg">
<path d="M20.207 18.8618L13.8667 12.5215C14.8506 11.2495 15.3828 9.69434 15.3828 8.05859C15.3828 6.10059 14.6187 4.26465 13.2368 2.88037C11.855 1.49609 10.0142 0.734375 8.05859 0.734375C6.10303 0.734375 4.26221 1.49854 2.88037 2.88037C1.49609 4.26221 0.734375 6.10059 0.734375 8.05859C0.734375 10.0142 1.49854 11.855 2.88037 13.2368C4.26221 14.6211 6.10059 15.3828 8.05859 15.3828C9.69434 15.3828 11.2471 14.8506 12.519 13.8691L18.8594 20.207C18.878 20.2256 18.9 20.2404 18.9243 20.2505C18.9486 20.2605 18.9747 20.2657 19.001 20.2657C19.0273 20.2657 19.0533 20.2605 19.0776 20.2505C19.1019 20.2404 19.124 20.2256 19.1426 20.207L20.207 19.145C20.2256 19.1264 20.2404 19.1044 20.2505 19.0801C20.2605 19.0558 20.2657 19.0297 20.2657 19.0034C20.2657 18.9771 20.2605 18.9511 20.2505 18.9268C20.2404 18.9025 20.2256 18.8804 20.207 18.8618ZM11.9258 11.9258C10.8906 12.9585 9.51856 13.5273 8.05859 13.5273C6.59863 13.5273 5.22656 12.9585 4.19141 11.9258C3.15869 10.8906 2.58984 9.51856 2.58984 8.05859C2.58984 6.59863 3.15869 5.22412 4.19141 4.19141C5.22656 3.15869 6.59863 2.58984 8.05859 2.58984C9.51856 2.58984 10.8931 3.15625 11.9258 4.19141C12.9585 5.22656 13.5273 6.59863 13.5273 8.05859C13.5273 9.51856 12.9585 10.8931 11.9258 11.9258Z" fill="white"/>
</svg>

<svg width="21" height="21" fill="none" xmlns="http://www.w3.org/2000/svg"><path d="M20.207 18.862l-6.34-6.34a7.259 7.259 0 001.516-4.463 7.28 7.28 0 00-2.146-5.179A7.27 7.27 0 008.059.734 7.28 7.28 0 002.88 2.88 7.266 7.266 0 00.734 8.06a7.28 7.28 0 002.146 5.178 7.266 7.266 0 005.179 2.146 7.264 7.264 0 004.46-1.514l6.34 6.338a.2.2 0 00.284 0l1.064-1.062a.2.2 0 000-.283zm-8.281-6.936a5.44 5.44 0 01-3.867 1.601 5.44 5.44 0 01-3.868-1.601A5.44 5.44 0 012.59 8.059a5.44 5.44 0 011.601-3.868A5.44 5.44 0 018.06 2.59c1.46 0 2.834.566 3.867 1.601a5.44 5.44 0 011.601 3.868c0 1.46-.568 2.834-1.601 3.867z" fill="#fff"/></svg>
